icons/cup-line.svg

<svg xmlns="http://www.w3.org/2000/svg" width="24" height="24" fill="none"><g clip-path="url(#a)"><g><path fill="#121212" d="M16 13V5H6V13C6 13.5304 6.21071 14.0391 6.58579 14.4142C6.96086 14.7893 7.46957 15 8 15H14C14.5304 15 15.0391 14.7893 15.4142 14.4142C15.7893 14.0391 16 13.5304 16 13ZM5 3H20C20.5304 3 21.0391 3.21071 21.4142 3.58579C21.7893 3.96086 22 4.46957 22 5V8C22 8.53043 21.7893 9.03914 21.4142 9.41421C21.0391 9.78929 20.5304 10 20 10H18V13C18 14.0609 17.5786 15.0783 16.8284 15.8284C16.0783 16.5786 15.0609 17 14 17H8C6.93913 17 5.92172 16.5786 5.17157 15.8284C4.42143 15.0783 4 14.0609 4 13V4C4 3.73478 4.10536 3.48043 4.29289 3.29289C4.48043 3.10536 4.73478 3 5 3ZM18 5V8H20V5H18ZM2 19H20V21H2V19Z"/></g></g><defs><clipPath id="a"><rect width="24" height="24" fill="white"/></clipPath></defs></svg>

<svg width="24" height="24" fill="none" xmlns="http://www.w3.org/2000/svg"><g clip-path="url(#a)"><path d="M16 13V5H6v8a2 2 0 0 0 2 2h6a2 2 0 0 0 2-2ZM5 3h15a2 2 0 0 1 2 2v3a2 2 0 0 1-2 2h-2v3a4 4 0 0 1-4 4H8a4 4 0 0 1-4-4V4a1 1 0 0 1 1-1Zm13 2v3h2V5h-2ZM2 19h18v2H2v-2Z" /></g><defs><clipPath id="a"><path fill="#fff" d="M0 0h24v24H0z"/></clipPath></defs></svg>
